!!!OTL: FROEHLICH UND WOHLGEMUT
!!!ARE: Europa, Mitteleuropa, Deutschland
!!!SCT: F0224
!!!YEM: Copyright 1995, estate of Helmut Schaffrath.
**kern
*ICvox
*Ivox
*M3/8
*k[f#]
*G:
=1
{8.b
16a
8g
=2
8g
8d
8d}
=3
{16r
16d
16g
16b
8dd
=4
16r
16dd
16b
16g
8d}
=5
{8.cc
16b
8a
=6
8a
8d
8d}
=7
{16r
16d
16f#
16a
8dd
=8
16r
16dd
16a
16f#
8d}
=9
{8.b
16cc
8dd
=10
8ee
8a
8a}
=11
{8cc
8a
8f#
=12
8g
8b
8g}
=13
{16r
16ee
16ee
16ee
8ee
=14
16r
16dd
16dd
16dd
8dd}
=15
{8r
8f#
8f#
=16
4g
8r}
==
!!!AGN: Abschieds -, Wander - Lied
!!!ONB: ESAC (Essen Associative Code) Database: FINK
!!!AMT: simple triple
!!!AIN: vox
!!!EED: Helmut Schaffrath
!!!EEV: 1.0
*-
